X: 35
M: 6/8
K: G
vDED GAB|AGA BGE|DED GAB|AdB AGE|
vdBd efg|fed cBA|GFG Bcd|efg a3 |
{ga}vbag {fg}vagf|{ef}gfe dBG|ege dBG|"4"AGG G2z:|


